assets/icons/qvision/network_check.svg

<svg width="24" height="24" viewBox="0 0 24 24" fill="none" xmlns="http://www.w3.org/2000/svg">
<g clip-path="url(#clip0_147_5974)">
<path d="M15.9 4.99999C15.73 4.99999 15.58 5.08999 15.49 5.22999L15.42 5.37999L10.24 17.03C10.08 17.32 9.98 17.64 9.98 17.99C9.98 19.1 10.88 20 11.99 20C12.95 20 13.76 19.32 13.95 18.41L13.96 18.38L16.4 5.49999C16.4 5.21999 16.18 4.99999 15.9 4.99999ZM1 8.99999L3 11C5.88 8.11999 9.79 6.91999 13.53 7.37999L14.72 4.69999C9.89 3.83999 4.74 5.26999 1 8.99999ZM21 11L23 8.99999C21.36 7.35999 19.45 6.17999 17.41 5.42999L16.88 8.24999C18.38 8.86999 19.78 9.77999 21 11ZM17 15L19 13C18.2 12.2 17.3 11.58 16.34 11.11L15.79 14.03C16.21 14.3 16.62 14.62 17 15ZM5 13L7 15C8.13 13.87 9.56 13.21 11.03 13L12.31 10.12C9.68 10.04 7.01 10.99 5 13Z" fill="#323232"/>
</g>
<defs>
<clipPath id="clip0_147_5974">
<rect width="24" height="24" fill="white"/>
</clipPath>
</defs>
</svg>

<svg xmlns="http://www.w3.org/2000/svg" height="24" viewBox="0 0 24 24" width="24"><path d="M0 0h24v24H0z" fill="none"/><path d="M15.9 5c-.17 0-.32.09-.41.23l-.07.15-5.18 11.65c-.16.29-.26.61-.26.96 0 1.11.9 2.01 2.01 2.01.96 0 1.77-.68 1.96-1.59l.01-.03L16.4 5.5c0-.28-.22-.5-.5-.5zM1 9l2 2c2.88-2.88 6.79-4.08 10.53-3.62l1.19-2.68C9.89 3.84 4.74 5.27 1 9zm20 2l2-2c-1.64-1.64-3.55-2.82-5.59-3.57l-.53 2.82c1.5.62 2.9 1.53 4.12 2.75zm-4 4l2-2c-.8-.8-1.7-1.42-2.66-1.89l-.55 2.92c.42.27.83.59 1.21.97zM5 13l2 2c1.13-1.13 2.56-1.79 4.03-2l1.28-2.88c-2.63-.08-5.3.87-7.31 2.88z"/></svg>
